X: 11792
T: KILWINNING LASSES
C: Copyright.--John Turnbull.
Q: "Strathspey."
%R: strathspey.
B: W. Hamilton "Universal Tune-Book" Vol. 1 Glasgow 1844 p.179 #2
S: http://imslp.org/wiki/Hamilton's_Universal_Tune-Book_(Various)
Z: 2016 John Chambers <jc:trillian.mit.edu>
M: C
L: 1/16
K: G
% - - - - - - - - - - - - - - - - - - - - - - - - -
|:\
d3Bd3B g3edB3 | G3DG3A Bc3A4 |\
d3Bd3B g3edB3 | G3DG3B A3BG4 :|
|:\
defg a3f g3dBd3 | e3cAg3 fa3a4 |\
defg a3f g3ab3g |1 eg3db3 a3bg4 :|2 eg3db3 a3b g2fe |]
% - - - - - - - - - - - - - - - - - - - - - - - - -

%%sep 1 1 500
%%sep 1 1 500

